public/images/icon/youtube.svg

<svg fill="none" height="18" viewBox="0 0 26 18" width="26" xmlns="http://www.w3.org/2000/svg"><path d="m25.1787 2.81657c-.2962-1.10137-1.1646-1.969559-2.2658-2.266123-2.0118-.550447-10.059-.550447-10.059-.550447s-8.0469 0-10.05867.529578c-1.08003.29625-1.969559 1.185782-2.265809 2.286992-.529421 2.01161-.529421 6.18343-.529421 6.18343s0 4.1928.529421 6.1834c.296564 1.1012 1.164599 1.9694 2.265969 2.266 2.03279.5506 10.05881.5506 10.05881.5506s8.0469 0 10.0587-.5296c1.1014-.2964 1.9696-1.1646 2.2661-2.2658.5293-2.0118.5293-6.18342.5293-6.18342s.0212-4.193-.5296-6.20461zm-14.8868 10.03753v-7.70817l6.6916 3.85407z" fill="#fff"/></svg>

<svg width="26" height="18" viewBox="0 0 26 18" fill="none" xmlns="http://www.w3.org/2000/svg">
<path d="M25.1787 2.81657C24.8825 1.7152 24.0141 0.847011 22.9129 0.550447C20.9011 0 12.8539 0 12.8539 0C12.8539 0 4.807 0 2.79523 0.529578C1.7152 0.825828 0.825671 1.71536 0.529421 2.81657C0 4.82818 0 9 0 9C0 9 0 13.1928 0.529421 15.1834C0.825985 16.2846 1.69402 17.1528 2.79539 17.4494C4.82818 18 12.8542 18 12.8542 18C12.8542 18 20.9011 18 22.9129 17.4704C24.0143 17.174 24.8825 16.3058 25.179 15.2046C25.7083 13.1928 25.7083 9.02118 25.7083 9.02118C25.7083 9.02118 25.7295 4.82818 25.1787 2.81657ZM10.2919 12.8541V5.14593L16.9835 9L10.2919 12.8541Z" fill="white"/>
</svg>
